X: 19469
T: Jackson's Mare
R: reel
M: 4/4
K: Gmajor
d2 AB B2 AG|FG Ac A2 Bc|d2 AB B2 AG|FA dc BG G2|
dg gf g2 ef|fg af g2 ab|ga fg2a gf|dc AA F2 d-|
dA BB2A GF|GA cA2B cd-|dA BB2A GF|Ad cB G G2 d|
gg fg2e ff|ga fg2a bg|af g2 ag fd|cA AF F2 c2||
Ac c=f af ef|ga _be fa be|fa c2 fa (3ga_b|eg gf f2 cB|
cA FG AF GA|_Bc dD D2 c=B|cA FG A2 _bg|ge ge f2 c2|
Ac cf af ef|ga _be fa _be|fa c2 fa (3ga_b|eg gf f2 cB|
cA FG AF GA|_Bc dD D2 c=B|cA FG A2 _bg|ge ge f2||

